packages/core/src/svgs/tokens/mono/URUS.svg

<svg width="24" height="24" viewBox="0 0 24 24" fill="none" xmlns="http://www.w3.org/2000/svg">
<path d="M19.8627 7.40137L21.7975 6.27152C21.8575 6.23153 21.9176 6.25652 21.9526 6.30152L21.9675 6.30652C22.0075 6.35652 22.0175 6.4315 21.9575 6.49149L19.9728 8.61121C19.7179 8.88618 19.3828 9.0611 19.0229 9.11616L17.2731 9.37605C16.9964 9.41723 16.7366 9.53505 16.5233 9.71609L16.0733 10.101L16.3133 10.211C16.6733 10.376 16.8133 10.8359 16.6132 11.1958L13.1637 17.39C12.9988 17.675 12.3838 17.75 11.9988 17.75C11.6289 17.75 10.999 17.68 10.839 17.39L7.38446 11.1909C7.18448 10.841 7.32446 10.376 7.68442 10.211L7.92939 10.101L7.47445 9.71609C7.25447 9.5361 6.99951 9.41606 6.72455 9.37605L4.97478 9.11616C4.61026 9.05981 4.27551 8.88186 4.02491 8.61121L2.04017 6.49149C2.01626 6.46717 2.00205 6.43495 2.0002 6.40089C1.99836 6.36684 2.00902 6.33328 2.03017 6.30652H2.05018L2.04517 6.30152C2.08017 6.25152 2.14016 6.23153 2.20016 6.27152L4.1349 7.40137C4.59484 7.67134 5.10976 7.75133 5.63469 7.75133H7.35946C7.87853 7.77315 8.3882 7.89716 8.85926 8.11628L9.84919 8.53122C10.5491 8.48122 11.2989 8.34124 11.9988 8.34124C12.6987 8.34124 13.4487 8.48623 14.1486 8.53122L15.1384 8.11628C15.6095 7.89716 16.1192 7.77315 16.6382 7.75133H18.363C18.8853 7.772 19.4035 7.65109 19.8627 7.40137Z" fill="white"/>
<path d="M10.9989 16.7498C10.9989 17.5497 11.6638 17.7496 11.9987 17.7496C12.4987 17.7496 12.9036 17.4996 12.9986 16.7498C13.2485 14.75 14.2484 12.5003 14.4984 11.7505C14.7484 11.0005 15.9982 10.7505 15.9982 10.5006C15.9982 10.0806 15.4982 10.5006 15.4982 10.0007C15.4982 9.40077 16.1631 8.91581 16.4982 8.75083H18.9978L21.6674 6.52613C21.7125 6.49114 21.6674 6.41614 21.6124 6.44614L18.9978 7.75097H16.4982C16.1631 7.75097 15.4282 7.91094 15.2483 8.00094C14.7484 8.2509 12.4987 9.25076 11.9987 9.25076C11.4987 9.25076 8.74914 8.00094 8.74914 8.00094C8.74914 8.00094 7.95925 7.75097 7.49931 7.75097H5.49958L2.24001 6.35115C2.19003 6.33116 2.14003 6.39615 2.18502 6.43114C2.95993 7.20104 4.56471 8.75083 4.74968 8.75083H6.99938C7.49931 8.75083 8.49918 9.50074 8.49918 10.0007C8.49918 10.5006 7.99925 10.2506 7.99925 10.5006C7.99925 10.7505 8.99911 11.2505 9.49905 11.7505C9.99895 12.2503 10.9989 15.7499 10.9989 16.7498Z" fill="white"/>
</svg>

<svg xmlns="http://www.w3.org/2000/svg" width="24" height="24" fill="none" viewBox="0 0 24 24">
    <path fill="#fff" d="m19.863 7.401 1.935-1.13c.06-.04.12-.014.155.03l.015.006c.04.05.05.124-.01.184l-1.985 2.12a1.63 1.63 0 0 1-.95.505l-1.75.26a1.5 1.5 0 0 0-.75.34l-.45.385.24.11c.36.165.5.625.3.985l-3.45 6.194c-.164.285-.78.36-1.164.36-.37 0-1-.07-1.16-.36l-3.455-6.2c-.2-.349-.06-.814.3-.979l.245-.11-.455-.385c-.22-.18-.474-.3-.75-.34l-1.75-.26a1.64 1.64 0 0 1-.95-.505L2.04 6.491a.14.14 0 0 1-.01-.184h.02l-.005-.005c.035-.05.095-.07.155-.03l1.935 1.13c.46.27.975.35 1.5.35h1.724a4 4 0 0 1 1.5.364l.99.415c.7-.05 1.45-.19 2.15-.19s1.45.145 2.15.19l.99-.415a4 4 0 0 1 1.5-.365h1.724a2.9 2.9 0 0 0 1.5-.35"/>
    <path fill="#fff" d="M10.999 16.75c0 .8.665 1 1 1 .5 0 .905-.25 1-1 .25-2 1.25-4.25 1.5-5s1.5-1 1.5-1.25c0-.42-.5 0-.5-.5 0-.6.664-1.084 1-1.25h2.499l2.67-2.224c.044-.035 0-.11-.056-.08l-2.614 1.305h-2.5c-.335 0-1.07.16-1.25.25-.5.25-2.75 1.25-3.25 1.25S8.75 8 8.75 8s-.79-.25-1.25-.25h-2l-3.259-1.4c-.05-.02-.1.045-.055.08.775.77 2.38 2.32 2.565 2.32H7c.5 0 1.5.75 1.5 1.25s-.5.25-.5.5 1 .75 1.5 1.25c.499.5 1.499 3.999 1.499 4.999"/>
</svg>
